icons/mail/address-book.svg

<?xml version="1.0" encoding="UTF-8"?>
<svg width="16px" height="16px" viewBox="0 0 16 16" version="1.1" xmlns="http://www.w3.org/2000/svg" xmlns:xlink="http://www.w3.org/1999/xlink">
    <!-- Generator: Sketch 46.1 (44463) - http://www.bohemiancoding.com/sketch -->
    <title>Artboard 2 Copy 20</title>
    <desc>Created with Sketch.</desc>
    <defs></defs>
    <g id="Page-1" stroke="none" stroke-width="1" fill="none" fill-rule="evenodd">
        <g id="Artboard-2-Copy-20">
            <path d="M5,3 C4.44771525,3 4,3.44771525 4,4 L4,12 C4,12.5522847 4.44771525,13 5,13 L11,13 C11.5522847,13 12,12.5522847 12,12 L12,4 C12,3.44771525 11.5522847,3 11,3 L5,3 Z M2,9 L2,7 L4,7 L4,4 L2,4 C2,2.34314575 3.34314575,1 5,1 L11,1 C12.6568542,1 14,2.34314575 14,4 L14,12 C14,13.6568542 12.6568542,15 11,15 L5,15 C3.34314575,15 2,13.6568542 2,12 L4,12 L4,9 L2,9 Z" id="Rectangle-6" fill="#000000" fill-rule="nonzero"></path>
            <g id="Group" transform="translate(0.000000, 4.000000)" fill="#000000">
                <rect id="Rectangle-2" x="1" y="1" width="3" height="1" rx="0.5"></rect>
            </g>
            <g id="Group-2" transform="translate(1.000000, 10.000000)" fill="#000000">
                <rect id="Rectangle-2" x="0" y="0" width="3" height="1" rx="0.5"></rect>
            </g>
            <path d="M5.54990517,10.5 L10.4500948,10.5 C10.4831442,10.3369972 10.5,10.1697724 10.5,10 C10.5,8.61928813 9.38071187,7.5 8,7.5 C6.61928813,7.5 5.5,8.61928813 5.5,10 C5.5,10.1697724 5.51685581,10.3369972 5.54990517,10.5 Z" id="Combined-Shape" stroke="#050505"></path>
            <circle id="Oval-6" stroke="#050505" cx="8" cy="6" r="1.5"></circle>
        </g>
    </g>
</svg>

<!-- This Source Code Form is subject to the terms of the Mozilla Public
   - License, v. 2.0. If a copy of the MPL was not distributed with this
   - file, You can obtain one at http://mozilla.org/MPL/2.0/. -->
<svg width="16" height="16" xmlns="http://www.w3.org/2000/svg">
  <g fill="none" fill-rule="evenodd">
    <path d="M5 3a1 1 0 0 0-1 1v8a1 1 0 0 0 1 1h6a1 1 0 0 0 1-1V4a1 1 0 0 0-1-1H5zM2 9V7h2V4H2a3 3 0 0 1 3-3h6a3 3 0 0 1 3 3v8a3 3 0 0 1-3 3H5a3 3 0 0 1-3-3h2V9H2z" fill="#000" fill-rule="nonzero"/>
    <rect x="1" y="1" width="3" height="1" rx=".5" transform="translate(0 4)" fill="#000"/>
    <rect width="3" height="1" rx=".5" transform="translate(1 10)" fill="#000"/>
    <path d="M5.55 10.5h4.9a2.5 2.5 0 1 0-4.9 0z" stroke="#050505"/>
    <circle stroke="#050505" cx="8" cy="6" r="1.5"/>
  </g>
</svg>
